Numix-Light/16/status/indicator-keyboard-Ph-5.svg

<?xml version="1.0" encoding="UTF-8" standalone="no"?>
<svg
   xmlns:dc="http://purl.org/dc/elements/1.1/"
   xmlns:cc="http://creativecommons.org/ns#"
   xmlns:rdf="http://www.w3.org/1999/02/22-rdf-syntax-ns#"
   xmlns:svg="http://www.w3.org/2000/svg"
   xmlns="http://www.w3.org/2000/svg"
   xmlns:sodipodi="http://sodipodi.sourceforge.net/DTD/sodipodi-0.dtd"
   xmlns:inkscape="http://www.inkscape.org/namespaces/inkscape"
   viewBox="0 0 16 16"
   id="svg2"
   version="1.1"
   inkscape:version="0.91 r13725"
   sodipodi:docname="indicator-keyboard-Ph-5.svg">
  <metadata
     id="metadata14">
    <rdf:RDF>
      <cc:Work
         rdf:about="">
        <dc:format>image/svg+xml</dc:format>
        <dc:type
           rdf:resource="http://purl.org/dc/dcmitype/StillImage" />
      </cc:Work>
    </rdf:RDF>
  </metadata>
  <defs
     id="defs12" />
  <sodipodi:namedview
     pagecolor="#ffffff"
     bordercolor="#666666"
     borderopacity="1"
     objecttolerance="10"
     gridtolerance="10"
     guidetolerance="10"
     inkscape:pageopacity="0"
     inkscape:pageshadow="2"
     inkscape:window-width="459"
     inkscape:window-height="369"
     id="namedview10"
     showgrid="false"
     inkscape:zoom="14.75"
     inkscape:cx="8"
     inkscape:cy="8"
     inkscape:window-x="65"
     inkscape:window-y="24"
     inkscape:window-maximized="0"
     inkscape:current-layer="svg2" />
  <path
     style="fill:#353535;fill-opacity:1"
     d="M 1.5996094 0 C 0.71320937 2.9605947e-16 0 0.71320937 0 1.5996094 L 0 14.400391 C 2.9605947e-16 15.286791 0.71320937 16 1.5996094 16 L 14.400391 16 C 15.286791 16 16 15.286791 16 14.400391 L 16 1.5996094 C 16 0.71320937 15.286791 0 14.400391 0 L 1.5996094 0 z M 7.6464844 4.1113281 L 7.6464844 6.578125 C 7.8384844 6.506125 8.0344219 6.4520156 8.2324219 6.4160156 C 8.4304219 6.3740156 8.6281719 6.3535156 8.8261719 6.3535156 C 9.1861719 6.3535156 9.4865625 6.4038594 9.7265625 6.5058594 C 9.9665625 6.6078594 10.156781 6.7552656 10.300781 6.9472656 C 10.444781 7.1332656 10.545609 7.3570938 10.599609 7.6210938 C 10.659609 7.8850937 10.689453 8.1761406 10.689453 8.4941406 L 10.689453 11.095703 L 10.103516 11.095703 L 10.103516 8.6835938 C 10.103516 8.3535938 10.07925 8.0756562 10.03125 7.8476562 C 9.98925 7.6196563 9.9146406 7.4330625 9.8066406 7.2890625 C 9.7046406 7.1450625 9.5665781 7.0424219 9.3925781 6.9824219 C 9.2185781 6.9164219 9.0003281 6.8847656 8.7363281 6.8847656 C 8.6343281 6.8847656 8.5223438 6.8921562 8.4023438 6.9101562 C 8.2883437 6.9281563 8.180125 6.9506094 8.078125 6.9746094 C 7.976125 6.9926094 7.8828281 7.0131094 7.7988281 7.0371094 C 7.7208281 7.0611094 7.6704844 7.0797969 7.6464844 7.0917969 L 7.6464844 11.095703 L 7.0625 11.095703 L 7.0625 4.2207031 L 7.6464844 4.1113281 z M 3.3457031 4.8046875 C 4.2277031 4.8046875 4.8863594 4.9725937 5.3183594 5.3085938 C 5.7503594 5.6445937 5.9648438 6.1222344 5.9648438 6.7402344 C 5.9648438 7.0942344 5.9033438 7.3964375 5.7773438 7.6484375 C 5.6513438 7.8944375 5.4703281 8.0959531 5.2363281 8.2519531 C 5.0023281 8.4019531 4.7150469 8.5139375 4.3730469 8.5859375 C 4.0370469 8.6519375 3.6564688 8.6835937 3.2304688 8.6835938 L 2.3828125 8.6835938 L 2.3828125 11.095703 L 1.7714844 11.095703 L 1.7714844 4.9765625 C 1.9874844 4.9165625 2.2393437 4.8736094 2.5273438 4.8496094 C 2.8213437 4.8196094 3.0937031 4.8046875 3.3457031 4.8046875 z M 3.3730469 5.3359375 C 3.1450469 5.3359375 2.9510625 5.3452813 2.7890625 5.3632812 C 2.6330625 5.3752813 2.4968125 5.3864375 2.3828125 5.3984375 L 2.3828125 8.1523438 L 3.1582031 8.1523438 C 3.4882031 8.1523438 3.7848281 8.1356094 4.0488281 8.0996094 C 4.3188281 8.0576094 4.5464219 7.9848125 4.7324219 7.8828125 C 4.9244219 7.7748125 5.0718281 7.6274062 5.1738281 7.4414062 C 5.2758281 7.2554062 5.3261719 7.0184688 5.3261719 6.7304688 C 5.3261719 6.4544687 5.27025 6.226875 5.15625 6.046875 C 5.04825 5.866875 4.9008437 5.7250469 4.7148438 5.6230469 C 4.5348438 5.5150469 4.32775 5.4404375 4.09375 5.3984375 C 3.85975 5.3564375 3.6190469 5.3359375 3.3730469 5.3359375 z M 12.263672 8.8417969 L 14.087891 8.8417969 L 14.087891 9.1757812 L 12.595703 9.1757812 C 12.59177 9.2498812 12.585892 9.3458906 12.578125 9.4628906 C 12.570325 9.5798906 12.562487 9.6994188 12.554688 9.8242188 C 12.546888 9.9451188 12.537091 10.062681 12.525391 10.175781 C 12.513691 10.288881 12.503894 10.379012 12.496094 10.445312 C 12.796394 10.453112 13.056991 10.490341 13.275391 10.556641 C 13.493791 10.622941 13.6721 10.711119 13.8125 10.824219 C 13.9529 10.937319 14.056747 11.074475 14.123047 11.234375 C 14.193247 11.394275 14.228516 11.572578 14.228516 11.767578 C 14.228516 11.939178 14.199125 12.097894 14.140625 12.246094 C 14.086025 12.394294 13.999813 12.523613 13.882812 12.632812 C 13.765813 12.742012 13.618853 12.828225 13.439453 12.890625 C 13.260053 12.953025 13.046481 12.984375 12.800781 12.984375 C 12.675981 12.984375 12.558419 12.974578 12.449219 12.955078 C 12.343919 12.939478 12.249863 12.919884 12.164062 12.896484 C 12.082163 12.873084 12.011625 12.849572 11.953125 12.826172 C 11.894625 12.802772 11.851519 12.783178 11.824219 12.767578 L 11.923828 12.427734 C 11.947228 12.443334 11.986416 12.462928 12.041016 12.486328 C 12.099516 12.509728 12.166134 12.533241 12.240234 12.556641 C 12.318234 12.576141 12.402494 12.593775 12.496094 12.609375 C 12.593594 12.624975 12.695481 12.632812 12.800781 12.632812 C 12.995781 12.632812 13.158409 12.611259 13.287109 12.568359 C 13.419709 12.521559 13.523563 12.458859 13.601562 12.380859 C 13.679563 12.302859 13.734425 12.212728 13.765625 12.111328 C 13.800725 12.006028 13.818359 11.894337 13.818359 11.773438 C 13.818359 11.617437 13.792887 11.476362 13.742188 11.351562 C 13.691488 11.226762 13.603309 11.120956 13.474609 11.035156 C 13.345909 10.949356 13.171525 10.884697 12.953125 10.841797 C 12.734725 10.794997 12.458447 10.771484 12.123047 10.771484 C 12.146447 10.572584 12.166041 10.392316 12.181641 10.228516 C 12.197241 10.060816 12.210956 9.9001469 12.222656 9.7480469 C 12.234356 9.5920469 12.242194 9.4431281 12.246094 9.2988281 C 12.253894 9.1506281 12.259772 8.9977969 12.263672 8.8417969 z "
     id="path4" />
</svg>

<svg xmlns="http://www.w3.org/2000/svg" viewBox="0 0 16 16">
 <path d="m 1.6 0 c -0.886 0 -1.6 0.713 -1.6 1.6 l 0 12.801 c 0 0.886 0.713 1.6 1.6 1.6 l 12.801 0 c 0.886 0 1.6 -0.713 1.6 -1.6 l 0 -12.801 c 0 -0.886 -0.713 -1.6 -1.6 -1.6 l -12.801 0 z m 6.05 4.111 l 0 2.467 c 0.192 -0.072 0.388 -0.126 0.586 -0.162 c 0.198 -0.042 0.396 -0.063 0.594 -0.063 c 0.36 0 0.66 0.05 0.9 0.152 c 0.24 0.102 0.43 0.249 0.574 0.441 c 0.144 0.186 0.245 0.41 0.299 0.674 c 0.06 0.264 0.09 0.555 0.09 0.873 l 0 2.602 l -0.586 0 l 0 -2.412 c 0 -0.33 -0.024 -0.608 -0.072 -0.836 c -0.042 -0.228 -0.117 -0.415 -0.225 -0.559 c -0.102 -0.144 -0.24 -0.247 -0.414 -0.307 c -0.174 -0.066 -0.392 -0.098 -0.656 -0.098 c -0.102 0 -0.214 0.007 -0.334 0.025 c -0.114 0.018 -0.222 0.04 -0.324 0.064 c -0.102 0.018 -0.195 0.038 -0.279 0.063 c -0.078 0.024 -0.128 0.043 -0.152 0.055 l 0 4 l -0.584 0 l 0 -6.875 l 0.584 -0.109 z m -4.301 0.693 c 0.882 0 1.541 0.168 1.973 0.504 c 0.432 0.336 0.646 0.814 0.646 1.432 c 0 0.354 -0.061 0.656 -0.188 0.908 c -0.126 0.246 -0.307 0.448 -0.541 0.604 c -0.234 0.15 -0.521 0.262 -0.863 0.334 c -0.336 0.066 -0.717 0.098 -1.143 0.098 l -0.848 0 l 0 2.412 l -0.611 0 l 0 -6.119 c 0.216 -0.06 0.468 -0.103 0.756 -0.127 c 0.294 -0.03 0.566 -0.045 0.818 -0.045 z m 0.027 0.531 c -0.228 0 -0.422 0.009 -0.584 0.027 c -0.156 0.012 -0.292 0.023 -0.406 0.035 l 0 2.754 l 0.775 0 c 0.33 0 0.627 -0.017 0.891 -0.053 c 0.27 -0.042 0.498 -0.115 0.684 -0.217 c 0.192 -0.108 0.339 -0.255 0.441 -0.441 c 0.102 -0.186 0.152 -0.423 0.152 -0.711 c 0 -0.276 -0.056 -0.504 -0.17 -0.684 c -0.108 -0.18 -0.255 -0.322 -0.441 -0.424 c -0.18 -0.108 -0.387 -0.183 -0.621 -0.225 c -0.234 -0.042 -0.475 -0.063 -0.721 -0.063 z m 8.891 3.506 l 1.824 0 l 0 0.334 l -1.492 0 c -0.004 0.074 -0.01 0.17 -0.018 0.287 c -0.008 0.117 -0.016 0.237 -0.023 0.361 c -0.008 0.121 -0.018 0.238 -0.029 0.352 c -0.012 0.113 -0.021 0.203 -0.029 0.27 c 0.3 0.008 0.561 0.045 0.779 0.111 c 0.218 0.066 0.397 0.154 0.537 0.268 c 0.14 0.113 0.244 0.25 0.311 0.41 c 0.07 0.16 0.105 0.338 0.105 0.533 c 0 0.172 -0.029 0.33 -0.088 0.479 c -0.055 0.148 -0.141 0.278 -0.258 0.387 c -0.117 0.109 -0.264 0.195 -0.443 0.258 c -0.179 0.062 -0.393 0.094 -0.639 0.094 c -0.125 0 -0.242 -0.01 -0.352 -0.029 c -0.105 -0.016 -0.199 -0.035 -0.285 -0.059 c -0.082 -0.023 -0.152 -0.047 -0.211 -0.07 c -0.059 -0.023 -0.102 -0.043 -0.129 -0.059 l 0.1 -0.34 c 0.023 0.016 0.063 0.035 0.117 0.059 c 0.058 0.023 0.125 0.047 0.199 0.07 c 0.078 0.019 0.162 0.037 0.256 0.053 c 0.098 0.016 0.199 0.023 0.305 0.023 c 0.195 0 0.358 -0.022 0.486 -0.064 c 0.133 -0.047 0.236 -0.109 0.314 -0.188 c 0.078 -0.078 0.133 -0.168 0.164 -0.27 c 0.035 -0.105 0.053 -0.217 0.053 -0.338 c 0 -0.156 -0.025 -0.297 -0.076 -0.422 c -0.051 -0.125 -0.139 -0.231 -0.268 -0.316 c -0.129 -0.086 -0.303 -0.15 -0.521 -0.193 c -0.218 -0.047 -0.495 -0.07 -0.83 -0.07 c 0.023 -0.199 0.043 -0.379 0.059 -0.543 c 0.016 -0.168 0.029 -0.328 0.041 -0.48 c 0.012 -0.156 0.02 -0.305 0.023 -0.449 c 0.008 -0.148 0.014 -0.301 0.018 -0.457 z" style="fill:#353535;fill-opacity:1"/>
</svg>
